X:511
T:A chantar m'er de so q'ieu no volria
Z:Jack Campin, http://www.campin.me.uk/
F:Jack Campin's Nine-Note Tunebook
% last edit 03-02-2013
C:Beatriz de Dia
M:3/4
L:1/8
Q:1/4=120
N:the original has no notated rhythm - this interpretation is based
N:on several different recordings
K:DDor
A2(AG) F2|(F2   G2)     A2  |   G4     F2 |  (FE)   D2   (3(FED)|E6 |
C2 D2  E2|(FG) (A>G) (3(FED)|   C4    (DE)|   F4         (3(EDC)|D6:|
A4     A2| A4           A2  |   G4     A2 |   G2 (3(FED)    E2  |F6 |
F4     F2| A4           c2  |   B4     A2 |   G2 (3(FED) (3(FED)|E6 |
C4     D2| E4          (FG) |  (A4     G2)|\
                             (3(FED) C4   |  (DE)   F2   (3(EDC)|D6|]

